1-js/09-classes/02-class-inheritance/animal-rabbit-extends.svg

<?xml version="1.0" encoding="UTF-8"?>
<svg width="560px" height="316px" viewBox="0 0 560 316" version="1.1" xmlns="http://www.w3.org/2000/svg" xmlns:xlink="http://www.w3.org/1999/xlink">
    <!-- Generator: sketchtool 61.2 (101010) - https://sketch.com -->
    <title>animal-rabbit-extends.svg</title>
    <desc>Created with sketchtool.</desc>
    <g id="inheritance" stroke="none" stroke-width="1" fill="none" fill-rule="evenodd">
        <g id="animal-rabbit-extends.svg">
            <rect id="Rectangle-1" stroke="#E8C48E" stroke-width="2" fill="#FFF9EB" x="242" y="23" width="185" height="64"></rect>
            <text id="constructor:-Animal" font-family="PTMono-Regular, PT Mono" font-size="14" font-weight="normal" fill="#8A704D">
                <tspan x="252" y="42">constructor: Animal</tspan>
                <tspan x="252" y="57">run: function</tspan>
                <tspan x="252" y="72">stop: function</tspan>
            </text>
            <rect id="Rectangle-1-Copy" stroke="#E8C48E" stroke-width="2" fill="#FFF9EB" x="242" y="286" width="185" height="28"></rect>
            <text id="Animal.prototype" font-family="PTMono-Regular, PT Mono" font-size="14" font-weight="normal" fill="#8A704D">
                <tspan x="241" y="15">Animal.prototype</tspan>
            </text>
            <rect id="Rectangle-1-Copy-4" stroke="#E8C48E" stroke-width="2" fill="#FFF9EB" x="242" y="166" width="185" height="48"></rect>
            <text id="constructor:-Rabbit" font-family="PTMono-Regular, PT Mono" font-size="14" font-weight="normal" fill="#8A704D">
                <tspan x="252" y="185">constructor: Rabbit</tspan>
                <tspan x="252" y="200">hide: function</tspan>
            </text>
            <text id="Rabbit.prototype" font-family="PTMono-Regular, PT Mono" font-size="14" font-weight="normal" fill="#8A704D">
                <tspan x="241" y="158">Rabbit.prototype</tspan>
            </text>
            <rect id="Rectangle-1-Copy-2" stroke="#E8C48E" stroke-width="2" fill="#FFF9EB" x="11" y="23" width="105" height="48"></rect>
            <text id="Animal" font-family="PTMono-Regular, PT Mono" font-size="14" font-weight="normal" fill="#8A704D">
                <tspan x="10" y="15">Animal</tspan>
            </text>
            <rect id="Rectangle-1-Copy-3" stroke="#E8C48E" stroke-width="2" fill="#FFF9EB" x="11" y="166" width="105" height="48"></rect>
            <text id="Rabbit" font-family="PTMono-Regular, PT Mono" font-size="14" font-weight="normal" fill="#8A704D">
                <tspan x="10" y="158">Rabbit</tspan>
            </text>
            <text id="new-Rabbit" font-family="PTMono-Regular, PT Mono" font-size="14" font-weight="normal" fill="#8A704D">
                <tspan x="247" y="278">new Rabbit</tspan>
            </text>
            <path id="Line" d="M330.5,96.5 L337.5,110.5 L331.5,110.5 L331.5,138.5 L329.5,138.5 L329.5,110.5 L323.5,110.5 L330.5,96.5 Z" fill="#EE6B47" fill-rule="nonzero"></path>
            <path id="Line-Copy" d="M211,40 L225,47 L211,54 L211,48 L132,48 L132,46 L211,46 L211,40 Z" fill="#EE6B47" fill-rule="nonzero"></path>
            <path id="Line-Copy-4" d="M489.15671,87.3104769 L489.689523,88.1567098 L489.266407,88.4231164 L468.585917,101.444165 L463.457,104.672 L470.71965,104.312561 L471.219037,104.287806 L471.268549,105.286579 L470.769162,105.311335 L461.60164,105.765793 L460.713841,105.809804 L461.137252,105.028238 L465.509456,96.9576836 L465.747625,96.5180525 L466.626887,96.9943907 L466.388718,97.4340218 L462.925,103.826 L468.053104,100.597933 L488.733593,87.5768836 L489.15671,87.3104769 Z" fill="#EE6B47" fill-rule="nonzero"></path>
            <text id="[[Prototype]]" font-family="PTMono-Regular, PT Mono" font-size="14" font-weight="normal" fill="#8A704D">
                <tspan x="340" y="120">[[Prototype]]</tspan>
            </text>
            <path id="Line-Copy-3" d="M330.5,230.5 L337.5,244.5 L331.5,244.5 L331.5,272.5 L329.5,272.5 L329.5,244.5 L323.5,244.5 L330.5,230.5 Z" fill="#EE6B47" fill-rule="nonzero"></path>
            <text id="[[Prototype]]-Copy" font-family="PTMono-Regular, PT Mono" font-size="14" font-weight="normal" fill="#8A704D">
                <tspan x="340" y="254">[[Prototype]]</tspan>
            </text>
            <text id="prototype" font-family="PTMono-Regular, PT Mono" font-size="14" font-weight="normal" fill="#8A704D">
                <tspan x="139" y="35">prototype</tspan>
            </text>
            <path id="Line-Copy-2" d="M211,182 L225,189 L211,196 L211,190 L132,190 L132,188 L211,188 L211,182 Z" fill="#EE6B47" fill-rule="nonzero"></path>
            <text id="prototype-copy" font-family="PTMono-Regular, PT Mono" font-size="14" font-weight="normal" fill="#8A704D">
                <tspan x="139" y="176">prototype</tspan>
            </text>
            <text id="name:-&quot;White-Rabbit&quot;" font-family="PTMono-Regular, PT Mono" font-size="14" font-weight="normal" fill="#8A704D">
                <tspan x="253" y="304">name: "White Rabbit"</tspan>
            </text>
            <text id="constructor" font-family="PTMono-Regular, PT Mono" font-size="14" font-weight="normal" fill="#8A704D">
                <tspan x="17" y="41">constructor</tspan>
            </text>
            <text id="constructor-copy" font-family="PTMono-Regular, PT Mono" font-size="14" font-weight="normal" fill="#8A704D">
                <tspan x="17" y="183">constructor</tspan>
            </text>
            <ellipse id="Oval" stroke="#EE6B47" cx="391.5" cy="117.5" rx="70.5" ry="20.5"></ellipse>
            <text id="extends" font-family="PTMono-Regular, PT Mono" font-size="16" font-weight="normal" fill="#EE6B47">
                <tspan x="489" y="83">extends</tspan>
            </text>
        </g>
    </g>
</svg>

<svg xmlns="http://www.w3.org/2000/svg" width="560" height="316" viewBox="0 0 560 316"><defs><style>@import url(https://fonts.googleapis.com/css?family=Open+Sans:bold,italic,bolditalic%7CPT+Mono);@font-face{font-family:&apos;PT Mono&apos;;font-weight:700;font-style:normal;src:local(&apos;PT MonoBold&apos;),url(/font/PTMonoBold.woff2) format(&apos;woff2&apos;),url(/font/PTMonoBold.woff) format(&apos;woff&apos;),url(/font/PTMonoBold.ttf) format(&apos;truetype&apos;)}</style></defs><g id="inheritance" fill="none" fill-rule="evenodd" stroke="none" stroke-width="1"><g id="animal-rabbit-extends.svg"><path id="Rectangle-1" fill="#FBF2EC" stroke="#DBAF88" stroke-width="2" d="M242 23h185v64H242z"/><text id="constructor:-Animal" fill="#AF6E24" font-family="PTMono-Regular, PT Mono" font-size="14" font-weight="normal"><tspan x="252" y="42">constructor: Animal</tspan> <tspan x="252" y="57">run: function</tspan> <tspan x="252" y="72">stop: function</tspan></text><path id="Rectangle-1-Copy" fill="#FBF2EC" stroke="#DBAF88" stroke-width="2" d="M242 286h185v28H242z"/><text id="Animal.prototype" fill="#AF6E24" font-family="PTMono-Regular, PT Mono" font-size="14" font-weight="normal"><tspan x="241" y="15">Animal.prototype</tspan></text><path id="Rectangle-1-Copy-4" fill="#FBF2EC" stroke="#DBAF88" stroke-width="2" d="M242 166h185v48H242z"/><text id="constructor:-Rabbit" fill="#AF6E24" font-family="PTMono-Regular, PT Mono" font-size="14" font-weight="normal"><tspan x="252" y="185">constructor: Rabbit</tspan> <tspan x="252" y="200">hide: function</tspan></text><text id="Rabbit.prototype" fill="#AF6E24" font-family="PTMono-Regular, PT Mono" font-size="14" font-weight="normal"><tspan x="241" y="158">Rabbit.prototype</tspan></text><path id="Rectangle-1-Copy-2" fill="#FBF2EC" stroke="#DBAF88" stroke-width="2" d="M11 23h105v48H11z"/><text id="Animal" fill="#AF6E24" font-family="PTMono-Regular, PT Mono" font-size="14" font-weight="normal"><tspan x="10" y="15">Animal</tspan></text><path id="Rectangle-1-Copy-3" fill="#FBF2EC" stroke="#DBAF88" stroke-width="2" d="M11 166h105v48H11z"/><text id="Rabbit" fill="#AF6E24" font-family="PTMono-Regular, PT Mono" font-size="14" font-weight="normal"><tspan x="10" y="158">Rabbit</tspan></text><text id="new-Rabbit" fill="#AF6E24" font-family="PTMono-Regular, PT Mono" font-size="14" font-weight="normal"><tspan x="247" y="278">new Rabbit</tspan></text><path id="Line" fill="#C06334" fill-rule="nonzero" d="M330.5 96.5l7 14h-6v28h-2v-28h-6l7-14z"/><path id="Line-Copy" fill="#C06334" fill-rule="nonzero" d="M211 40l14 7-14 7v-6h-79v-2h79v-6z"/><path id="Line-Copy-4" fill="#C06334" fill-rule="nonzero" d="M489.157 87.31l.533.847-.424.266-20.68 13.021-5.129 3.228 7.263-.36.499-.024.05.999-.5.024-9.167.455-.888.044.423-.782 4.372-8.07.239-.44.879.476-.238.44-3.464 6.392 5.128-3.228 20.68-13.021.424-.267z"/><text id="[[Prototype]]" fill="#AF6E24" font-family="PTMono-Regular, PT Mono" font-size="14" font-weight="normal"><tspan x="340" y="120">[[Prototype]]</tspan></text><path id="Line-Copy-3" fill="#C06334" fill-rule="nonzero" d="M330.5 230.5l7 14h-6v28h-2v-28h-6l7-14z"/><text id="[[Prototype]]-Copy" fill="#AF6E24" font-family="PTMono-Regular, PT Mono" font-size="14" font-weight="normal"><tspan x="340" y="254">[[Prototype]]</tspan></text><text id="prototype" fill="#AF6E24" font-family="PTMono-Regular, PT Mono" font-size="14" font-weight="normal"><tspan x="139" y="35">prototype</tspan></text><path id="Line-Copy-2" fill="#C06334" fill-rule="nonzero" d="M211 182l14 7-14 7v-6h-79v-2h79v-6z"/><text id="prototype-copy" fill="#AF6E24" font-family="PTMono-Regular, PT Mono" font-size="14" font-weight="normal"><tspan x="139" y="176">prototype</tspan></text><text id="name:-&quot;White-Rabbit&quot;" fill="#AF6E24" font-family="PTMono-Regular, PT Mono" font-size="14" font-weight="normal"><tspan x="253" y="304">name: &quot;White Rabbit&quot;</tspan></text><text id="constructor" fill="#AF6E24" font-family="PTMono-Regular, PT Mono" font-size="14" font-weight="normal"><tspan x="17" y="41">constructor</tspan></text><text id="constructor-copy" fill="#AF6E24" font-family="PTMono-Regular, PT Mono" font-size="14" font-weight="normal"><tspan x="17" y="183">constructor</tspan></text><ellipse id="Oval" cx="391.5" cy="117.5" stroke="#C06334" rx="70.5" ry="20.5"/><text id="extends" fill="#C06334" font-family="PTMono-Regular, PT Mono" font-size="16" font-weight="normal"><tspan x="489" y="83">extends</tspan></text></g></g></svg>
